X: 2
T: The Heather Breeze
R: reel
M: 4/4
L: 1/8
K: Gmaj
g2 gf gbag|fdde fgaf|defg abag|fdcA BGGF||g2 gf gbag|fdde fgaf|gbag fagf |edcA (3Bcd AF||


Tune 411	Setting 29582

